X:1
T:Title
%%score { 1 | 2 }
L:1/8
Q:1/4=90
M:6/8
K:D
V:1 treble nm="Grand Piano"
V:2 bass 
V:1
 DF[FA] [GB][FA][DF] | [DF]3 [CE]3 | cBA edc | [Fd]6 | Bcd edB | [DFA]3 [A,DF]3 | %6
w: J.~Howard~Entwisle * * * * *||||||
 [B,DE][B,DG][DB] [CA][CG][K:bass][G,CE] | [F,D]6 | [G,B,D][B,DG][DGB] [DFA]3 | %9
w: |||
 [CGA][EGc][Ge] [Fd]3 | [Fd][Fd][Fd] cee | dcB [CA]3 | FED [FA]2 [FA] | BdB [FA]3 | FFG F3 | %15
w: ||||||
 [DF]DE D3 |] %16
w: |
V:2
 [D,F,][D,A,D][D,D] [D,D][D,D][D,A,] | [A,,A,]3 [A,,A,]3 | [A,G][A,DG][A,CG] [A,CG][A,DG][A,EG] | %3
 [D,D]6 | [G,DG][G,CG][G,B,G] [G,B,G][G,B,G][G,DG] | D,3 D,3 | G,,G,,[G,,G,] [A,,G,][A,,E,]A,, | %7
 D,6 | G,,G,,G,, D,3 | A,A,A, [D,A,]3 | [D,A,][D,A,][D,A,] [E,A,E][E,CE][E,CE] | %11
 [E,B,E][E,A,E][E,^G,D] [A,,A,]3 | [D,A,D][D,G,D][D,F,] [D,A,]2 [D,D] | %13
 [G,DG][G,B,G][G,DG][K:bass] [D,D]3 | [D,A,D][D,A,D][D,B,D] [D,A,D]3 | %15
 [A,,A,][A,,F,A,][A,,G,A,] [D,F,A,]3 |] %16

